X:736
L:1/8
Q:1/4=112
M:6/8
K:Gmin
"^Allegretto" B/c/ | d>ed (cA) d | G>GG G2 (A/B/) | c>Af (cAG) | F>FF F2 d | gag fdc | 
 dgg g2 (b/g/) | (fd)d (cA)A | G2 G G2 ||

